docs/inc/icons/issue-closed.svg

<svg height="16" viewBox="0 0 16 16" width="16" xmlns="http://www.w3.org/2000/svg"><path d="m7 10h2v2h-2zm2-6h-2v5h2zm1.5 1.5-1 1 2.5 2.5 4-4.5-1-1-3 3.5zm-2.5 8.2a5.71 5.71 0 0 1 -5.7-5.7c0-3.14 2.56-5.7 5.7-5.7 1.83 0 3.45.88 4.5 2.2l.92-.92a6.947 6.947 0 0 0 -5.42-2.58c-3.86 0-7 3.14-7 7s3.14 7 7 7 7-3.14 7-7l-1.52 1.52c-.66 2.41-2.86 4.19-5.48 4.19z" fill-rule="evenodd"/></svg>

<svg xmlns="http://www.w3.org/2000/svg" width="16" height="16" viewBox="0 0 16 16"><path fill-rule="evenodd" d="M7 10h2v2H7v-2zm2-6H7v5h2V4zm1.5 1.5l-1 1L12 9l4-4.5-1-1L12 7l-1.5-1.5zM8 13.7A5.71 5.71 0 0 1 2.3 8c0-3.14 2.56-5.7 5.7-5.7 1.83 0 3.45.88 4.5 2.2l.92-.92A6.947 6.947 0 0 0 8 1C4.14 1 1 4.14 1 8s3.14 7 7 7 7-3.14 7-7l-1.52 1.52c-.66 2.41-2.86 4.19-5.48 4.19v-.01z"/></svg>
